X: 102
T:Jota de Perucho
M:3/4
L:1/8
Q:250
C:Trad
S:Rep. "O Perucho" de Moledo
R:Jota
K:C
EFED | E2 "~"D2C2 | E2 "~"D2C2 | D2 "~"C2B,2- | B,2 FGFE | F2"~"E2D2|F2"
~"
E2D2|E2 "~"D2C2- |
C2 EFED | E2D2C"F."G | C2D2E2| F6- | G"F."c FEDF | EFEDCE | DEDCB,D | C6
- | C2- :| C2E2|:
F4E2| C2D2E2 | F4E2| G4E2 |G4F2 |E2D2F2 |E4D2 |1 C4 "     3 veces"E2 :|2
 C6- | C2

